X:22
T: Mikey's Jig
M: 6/8
R: jig
K: Dm
L: 1/8
Q: 3/8=110
"Dm"D2 A A2 F| G2 G GFG| "F"A2 d dcd| efe def|
"Gm7"edc dcA| cAF G3| "Bb"G2 G GFG| "A"AGF D3:|
|: "Dm"D2 E F2 G| A2 d d3| "Dm/C"c2 A c2 (d| d)cd AGF|
"Gm7"D2 E F2 G| A2 (d d)cd| "Bb"eAA fAA| [1"A7"edc d3:|][2"A7"gAA a3|]
%%text 2015-02-07
